X: 41764
T: Variación Andina
R: polka
M: 2/4
K: Bminor
B>B- B/A/F/A/|B>B- B/A/F/A/|B>B- B/A/F/A/|d/B/c/A/ B/A/F/A/|
B>B- B/A/F/A/|B>B- B/A/F/A/|B>B- B/A/F/A/|d/B/c/A/ B/A/F/A/:|
B>B- B/BB/|Bd cd|B/dc/- c/BA/|Bd cd|
B/dc/- c/BA/|Bd cd|B/dc/- c/BA/|Bd cd|B/dc/- c/BA/|B>B- B/BB/|B2 z2|
|:[M:3/4] f>f- f/ff/ ea|f>f- f/ff/ ea|f>f- f/ff/ ea|[M:2/4] a/f/e/d/ A/c/B/A/|B>B- B/BB/|B2A2:|

